X:1
T:Kramarik, 87.87 D
T:Kramarik, 87.87 D
T:Tullius Clinton O’Kane, 1890
T:Public Domain Courtesy of the Cyber Hymnal™
C:Tullius Clinton O’Kane, 1890
Z:Public Domain
Z:Courtesy of the Cyber Hymnal™
%%score ( 1 2 ) ( 3 4 )
L:1/8
Q:1/4=77
M:2/4
K:D
V:1 treble 
V:2 treble 
V:3 bass 
V:4 bass 
V:1
 [DF]>[D^E] [DF][DG] | [FA][GB] [GB][FA] | [EA]>[E^G] [EA][EB] | [Ac][Fd] ([Ac][GB]) | %4
 [FA]>[GB] [Ac][Fd] | [Ad][^Ac] [Be][Gd] | [Gc][GB] A[Fd] | [Ec][Ge] [Fd]2 | [FA]>[GB] [FA][DF] | %9
 [Dd][GB] [DA][DF] | D>[CE] [DF][CG] | [DA][DB] [CE]2 x3/2 | [FA]>[GB] [FA][DF] | %13
 [Dd][GB] [DA][DF] | [DB]>[DB] [DA]d | [Fd][Gc] [Fd]2 |] %16
V:2
 x4 | x4 | x4 | x4 | x4 | x4 | x2 A x | x4 | x4 | x4 | D3/2 x5/2 | x11/2 | x4 | x4 | x3 (D/E/) | %15
 x4 |] %16
V:3
 [D,A,]>[D,^G,] [D,A,][D,A,] | [D,D][D,D] [D,D][D,D] | [A,,C]>[A,,^B,] [A,,C][A,,D] | %3
 [A,,E][A,,D] [A,,E]2 | [D,D]>[D,D] [D,E][D,D] | [F,D][F,E] [F,D][F,D] | [G,E][G,D] [F,D][D,A,] | %7
 [A,,A,][A,,A,] [D,A,]2 | [D,D]>[D,D] [D,D][D,A,] | [G,B,][G,D] [F,D][D,A,] | %10
 [D,A,]>[A,,A,] [D,A,][E,A,] | [F,D]B, z/ x3 | [D,D]>[D,D] [D,D][D,A,] | [G,B,][G,C] [F,D][D,A,] | %14
 G,>[G,B,] [F,D] ([F,A,]/[G,B,]/) | A,[A,,A,] [D,A,]2 |] %16
V:4
 x4 | x4 | x4 | x4 | x4 | x4 | x4 | x4 | x4 | x4 | x4 | x G,/^G,/ (A,2 =G,/F,/E,/) | x4 | x4 | %14
 G,3/2 x5/2 | A, x3 |] %16

